X: 34479
T: Ridée Six Temps
R: three-two
M: 3/2
K: Dmajor
|:f|fB f2 ef|gf ed cB|cd ef e2|ce dc B:|
fB cd B2|gB cd B2|AB cd ed|ce dc cB|
fB cd B2|gB cd B2|AB cd ed|ce dc B2||

